brandFactory_export/2.Regular/Jarabe _2Regular.svg

<?xml version="1.0" encoding="UTF-8"?>
<svg width="24px" height="24px" viewBox="0 0 24 24" version="1.1" xmlns="http://www.w3.org/2000/svg" xmlns:xlink="http://www.w3.org/1999/xlink">
    <title>2.Regular/Jarabe _2Regular</title>
    <g id="Symbols" stroke="none" stroke-width="1" fill="none" fill-rule="evenodd">
        <g id="2.Regular/Jarabe-_2Regular" fill="#5CB615" fill-rule="nonzero">
            <path d="M15.2268908,22.1848739 C16.6722689,22.1848739 17.6033613,21.6470588 18.0336134,20.6084034 L5.72436975,20.6084034 C5.85546218,20.9277311 6.02689076,21.2067227 6.25210084,21.4285714 C6.77310924,21.9327731 7.54285714,22.1882353 8.5512605,22.1882353 L15.2268908,22.1882353 L15.2268908,22.1848739 Z M7.52605042,1.70756303 L7.52605042,5.21680672 C7.52605042,5.36470588 7.64705882,5.48235294 7.79159664,5.48235294 L15.8823529,5.48235294 C16.0302521,5.48235294 16.1478992,5.36470588 16.1478992,5.21680672 L16.1478992,1.70756303 C16.1478992,1.55966387 16.0268908,1.44201681 15.8823529,1.44201681 L7.79159664,1.44201681 C7.64705882,1.43865546 7.52605042,1.55966387 7.52605042,1.70756303 Z M18.2285714,8.61176471 C18.0403361,7.65714286 17.5361345,7.01176471 16.7294118,6.68907563 C16.4806723,6.83361345 16.194958,6.92436975 15.8823529,6.92436975 L7.79159664,6.92436975 C7.50588235,6.92436975 7.23697479,6.84705882 7.00168067,6.71932773 C6.71932773,6.84033613 6.4605042,6.98823529 6.25210084,7.18655462 C5.88907563,7.53613445 5.65714286,8.02352941 5.53613445,8.61176471 L18.2285714,8.61176471 Z M5.43865546,19.0588235 C5.43865546,19.0957983 5.44537815,19.1294118 5.44537815,19.1663866 L18.302521,19.1663866 C18.302521,19.1294118 18.3092437,19.0957983 18.3092437,19.0588235 L18.3193277,10.0504202 L5.44201681,10.0504202 L5.44201681,19.0588235 L5.43865546,19.0588235 Z M17.5596639,5.47226891 C18.9815126,6.17142857 19.7546218,7.59327731 19.7546218,9.54957983 L19.7445378,19.0588235 C19.7445378,21.9159664 18.0537815,23.6235294 15.2268908,23.6235294 L8.54789916,23.6235294 C7.15630252,23.6235294 6.04705882,23.2336134 5.25042017,22.4605042 C4.42352941,21.6571429 4.00336134,20.5142857 4.00336134,19.0588235 L4.00336134,9.54957983 C4.00336134,8.09411765 4.42352941,6.9512605 5.25714286,6.14789916 C5.5092437,5.90252101 5.80504202,5.70756303 6.1210084,5.5394958 C6.10084034,5.43529412 6.08739496,5.32773109 6.08739496,5.21680672 L6.08739496,1.70756303 C6.08739496,0.766386555 6.85042017,0 7.78823529,0 L15.8789916,0 C16.8168067,0 17.5798319,0.766386555 17.5798319,1.70756303 L17.5798319,5.21680672 C17.5865546,5.30420168 17.5731092,5.38823529 17.5596639,5.47226891 L17.5596639,5.47226891 Z M8.76638655,4.83697479 C8.3697479,4.83697479 8.05042017,4.51428571 8.05042017,4.11764706 L8.05042017,2.77647059 C8.05042017,2.37983193 8.37310924,2.05714286 8.76638655,2.05714286 C9.15966387,2.05714286 9.48235294,2.37983193 9.48235294,2.77647059 L9.48235294,4.11764706 C9.48571429,4.51428571 9.16302521,4.83697479 8.76638655,4.83697479 Z M10.8168067,4.83697479 C10.4201681,4.83697479 10.1008403,4.51428571 10.1008403,4.11764706 L10.1008403,2.77647059 C10.1008403,2.37983193 10.4235294,2.05714286 10.8168067,2.05714286 C11.210084,2.05714286 11.5327731,2.37983193 11.5327731,2.77647059 L11.5327731,4.11764706 C11.5327731,4.51428571 11.210084,4.83697479 10.8168067,4.83697479 Z M12.8638655,4.83697479 C12.4672269,4.83697479 12.1478992,4.51428571 12.1478992,4.11764706 L12.1478992,2.77647059 C12.1478992,2.37983193 12.4705882,2.05714286 12.8638655,2.05714286 C13.2571429,2.05714286 13.5798319,2.37983193 13.5798319,2.77647059 L13.5798319,4.11764706 C13.5798319,4.51428571 13.2605042,4.83697479 12.8638655,4.83697479 L12.8638655,4.83697479 Z M14.9109244,4.83697479 C14.5142857,4.83697479 14.194958,4.51428571 14.194958,4.11764706 L14.194958,2.77647059 C14.194958,2.37983193 14.5176471,2.05714286 14.9109244,2.05714286 C15.307563,2.05714286 15.6268908,2.37983193 15.6268908,2.77647059 L15.6268908,4.11764706 C15.6302521,4.51428571 15.307563,4.83697479 14.9109244,4.83697479 Z M14.5210084,15.1394958 L14.5210084,14.1042017 L12.3630252,14.1042017 L12.3630252,11.9394958 L11.3277311,11.9394958 L11.3277311,14.1042017 L9.17310924,14.107563 L9.17310924,15.1462185 L11.3277311,15.1462185 L11.3310924,17.3109244 L12.3663866,17.3109244 L12.3663866,15.1462185 L14.5210084,15.1394958 L14.5210084,15.1394958 Z M14.6117647,12.8571429 C15.2369748,12.8571429 15.7647059,13.3546218 15.7647059,13.9462185 L15.7647059,15.3042017 C15.7647059,15.892437 15.2369748,16.389916 14.6117647,16.389916 L13.6067227,16.389916 L13.6067227,17.4016807 C13.6067227,18.0403361 13.1193277,18.5579832 12.5210084,18.5579832 L11.1663866,18.5579832 C10.5680672,18.5579832 10.0806723,18.0403361 10.0806723,17.4016807 L10.0806723,16.3966387 L9.07563025,16.3966387 C8.44033613,16.3966387 7.92268908,15.9092437 7.92268908,15.307563 L7.92268908,13.9495798 C7.92268908,13.3512605 8.44033613,12.8605042 9.07563025,12.8605042 L10.0773109,12.8605042 L10.0773109,11.8521008 C10.0773109,11.2268908 10.5747899,10.6957983 11.1630252,10.6957983 L12.5176471,10.6957983 C13.1058824,10.6957983 13.6033613,11.2268908 13.6033613,11.8521008 L13.6033613,12.8605042 L14.6117647,12.8571429 L14.6117647,12.8571429 Z" id="Jarabe-_2Regular"></path>
        </g>
    </g>
</svg>

<svg width="24" height="24" viewBox="0 0 24 24" xmlns="http://www.w3.org/2000/svg"><path d="M15.227 22.185c1.445 0 2.376-.538 2.807-1.577H5.724c.131.32.303.599.528.82.521.505 1.29.76 2.3.76h6.675v-.003zm-7.7-20.477v3.509c0 .148.12.265.265.265h8.09a.264.264 0 00.266-.265v-3.51a.266.266 0 00-.266-.265h-8.09a.264.264 0 00-.266.266zm10.702 6.904c-.189-.955-.693-1.6-1.5-1.923a1.676 1.676 0 01-.847.235h-8.09c-.286 0-.555-.077-.79-.205a2.502 2.502 0 00-.75.468c-.363.35-.595.837-.716 1.425H18.23zM5.439 19.059c0 .037.006.07.006.107h12.858c0-.037.006-.07.006-.107l.01-9.009H5.442v9.009h-.003zm12.12-13.587c1.423.7 2.196 2.121 2.196 4.078l-.01 9.509c0 2.857-1.691 4.565-4.518 4.565h-6.68c-1.39 0-2.5-.39-3.297-1.163-.826-.804-1.247-1.947-1.247-3.402v-9.51c0-1.455.42-2.598 1.254-3.401a3.74 3.74 0 01.864-.609 1.694 1.694 0 01-.034-.322v-3.51C6.087.768 6.85 0 7.788 0h8.091c.938 0 1.7.766 1.7 1.708v3.509c.008.087-.006.171-.02.255zm-8.793-.635a.717.717 0 01-.716-.72v-1.34a.72.72 0 01.716-.72.72.72 0 01.716.72v1.34a.715.715 0 01-.716.72zm2.05 0a.717.717 0 01-.715-.72v-1.34a.72.72 0 01.716-.72.72.72 0 01.716.72v1.34a.72.72 0 01-.716.72zm2.048 0a.717.717 0 01-.716-.72v-1.34a.72.72 0 01.716-.72.72.72 0 01.716.72v1.34c0 .397-.32.72-.716.72zm2.047 0a.717.717 0 01-.716-.72v-1.34a.72.72 0 01.716-.72c.397 0 .716.323.716.72v1.34a.715.715 0 01-.716.72zm-.39 10.302v-1.035h-2.158V11.94h-1.035v2.165l-2.155.004v1.038h2.155l.003 2.165h1.035v-2.165l2.155-.007zm.09-2.282c.626 0 1.154.498 1.154 1.09v1.357c0 .588-.528 1.086-1.153 1.086h-1.005v1.012c0 .638-.488 1.156-1.086 1.156h-1.355c-.598 0-1.085-.518-1.085-1.156v-1.005H9.076c-.636 0-1.153-.488-1.153-1.09V13.95c0-.599.517-1.09 1.153-1.09h1.001v-1.008c0-.625.498-1.156 1.086-1.156h1.355c.588 0 1.085.53 1.085 1.156v1.009l1.009-.004z" fill="#5CB615" fill-rule="nonzero"/></svg>
